SVG_Azure_All/Policy Exemption.svg

<?xml version="1.0" encoding="UTF-8" standalone="no"?>
<!-- Generated by Microsoft Visio, SVG Export Policy Exemption.svg Page-1 -->

<svg
   xmlns:dc="http://purl.org/dc/elements/1.1/"
   xmlns:cc="http://creativecommons.org/ns#"
   xmlns:rdf="http://www.w3.org/1999/02/22-rdf-syntax-ns#"
   xmlns:svg="http://www.w3.org/2000/svg"
   xmlns="http://www.w3.org/2000/svg"
   xmlns:sodipodi="http://sodipodi.sourceforge.net/DTD/sodipodi-0.dtd"
   xmlns:inkscape="http://www.inkscape.org/namespaces/inkscape"
   width="0.78735989in"
   height="0.78735989in"
   viewBox="0 0 56.689997 56.689997"
   xml:space="preserve"
   class="st3"
   version="1.1"
   id="svg29"
   sodipodi:docname="Policy Exemption.svg"
   style="font-size:12px;overflow:visible;color-interpolation-filters:sRGB;fill:none;fill-rule:evenodd;stroke-linecap:square;stroke-miterlimit:3"
   inkscape:version="0.92.5 (2060ec1f9f, 2020-04-08)"><metadata
   id="metadata35"><rdf:RDF><cc:Work
       rdf:about=""><dc:format>image/svg+xml</dc:format><dc:type
         rdf:resource="http://purl.org/dc/dcmitype/StillImage" /></cc:Work></rdf:RDF></metadata><defs
   id="defs33" /><sodipodi:namedview
   pagecolor="#ffffff"
   bordercolor="#666666"
   borderopacity="1"
   objecttolerance="10"
   gridtolerance="10"
   guidetolerance="10"
   inkscape:pageopacity="0"
   inkscape:pageshadow="2"
   inkscape:window-width="640"
   inkscape:window-height="480"
   id="namedview31"
   showgrid="false"
   inkscape:zoom="1.3289007"
   inkscape:cx="37.795279"
   inkscape:cy="37.791271"
   inkscape:window-x="0"
   inkscape:window-y="0"
   inkscape:window-maximized="0"
   inkscape:current-layer="svg29" />
	<style
   type="text/css"
   id="style2">
	<![CDATA[
		.st1 {fill:#b8d432;stroke:none;stroke-linecap:butt;stroke-width:38.25}
		.st2 {fill:#ffffff;stroke:none;stroke-linecap:butt;stroke-width:38.25}
		.st3 {fill:none;fill-rule:evenodd;font-size:12px;overflow:visible;stroke-linecap:square;stroke-miterlimit:3}
	]]>
	</style>

	<g
   id="g27"
   transform="translate(-38.25,-38.25)">
		<title
   id="title4">Page-1</title>
		<g
   id="group2258-1"
   transform="translate(38.25,-38.25)">
			<title
   id="title6">Policy Exemption</title>
			<g
   id="group2259-2">
				<title
   id="title8">Sheet.2259</title>
				<g
   id="shape2260-3">
					<title
   id="title10">Sheet.2260</title>
					<path
   d="M 28.35,76.5 C 12.76,76.5 0,89.26 0,104.85 c 0,15.59 12.76,28.34 28.35,28.34 15.59,0 28.34,-12.75 28.34,-28.34 C 56.69,89.26 43.94,76.5 28.35,76.5 Z"
   class="st1"
   id="path12"
   inkscape:connector-curvature="0"
   style="fill:#b8d432;stroke:none;stroke-width:38.25;stroke-linecap:butt" />
				</g>
				<g
   id="shape2261-5"
   transform="translate(3.54331,-3.54331)">
					<title
   id="title15">Sheet.2261</title>
					<circle
   cx="24.803101"
   cy="108.39"
   class="st2"
   id="ellipse17"
   r="24.803101"
   style="fill:#ffffff;stroke:none;stroke-width:38.25;stroke-linecap:butt" />
				</g>
				<g
   id="shape2262-7"
   transform="translate(13.8189,-13.4646)">
					<title
   id="title20">Sheet.2262</title>
					<path
   d="m 29.06,107.68 -3.9,-3.9 c -0.36,-0.35 -1.07,-0.35 -1.42,0 L 0.35,127.52 c -0.35,0.36 -0.35,1.07 0,1.42 l 3.55,3.9 c 0.35,0.35 1.06,0.35 1.41,0 L 28.7,109.1 c 0.36,-0.36 0.71,-1.06 0.36,-1.42 z"
   class="st1"
   id="path22"
   inkscape:connector-curvature="0"
   style="fill:#b8d432;stroke:none;stroke-width:38.25;stroke-linecap:butt" />
				</g>
			</g>
		</g>
	</g>
</svg>

<?xml version="1.0" encoding="UTF-8" standalone="no"?>
<!DOCTYPE svg PUBLIC "-//W3C//DTD SVG 1.1//EN" "http://www.w3.org/Graphics/SVG/1.1/DTD/svg11.dtd">
<!-- Generated by Microsoft Visio, SVG Export Policy Exemption.svg Page-1 -->
<svg xmlns="http://www.w3.org/2000/svg" xmlns:xlink="http://www.w3.org/1999/xlink" xmlns:ev="http://www.w3.org/2001/xml-events"
		width="1.8499in" height="1.8499in" viewBox="0 0 133.193 133.193" xml:space="preserve" color-interpolation-filters="sRGB"
		class="st3">
	<style type="text/css">
	<![CDATA[
		.st1 {fill:#b8d432;stroke:none;stroke-linecap:butt;stroke-width:38.25}
		.st2 {fill:#ffffff;stroke:none;stroke-linecap:butt;stroke-width:38.25}
		.st3 {fill:none;fill-rule:evenodd;font-size:12px;overflow:visible;stroke-linecap:square;stroke-miterlimit:3}
	]]>
	</style>

	<g>
		<title>Page-1</title>
		<g id="group2243-1" transform="translate(38.25,-38.25)">
			<title>Policy Exemption</title>
			<g id="group2244-2">
				<title>Sheet.2244</title>
				<g id="shape2245-3">
					<title>Sheet.2245</title>
					<path d="M28.35 76.5 C12.76 76.5 0 89.26 0 104.85 C0 120.44 12.76 133.19 28.35 133.19 C43.94 133.19 56.69 120.44
								 56.69 104.85 C56.69 89.26 43.94 76.5 28.35 76.5 Z" class="st1"/>
				</g>
				<g id="shape2246-5" transform="translate(3.54331,-3.54331)">
					<title>Sheet.2246</title>
					<ellipse cx="24.8031" cy="108.39" rx="24.8031" ry="24.8031" class="st2"/>
				</g>
				<g id="shape2247-7" transform="translate(13.8189,-13.4646)">
					<title>Sheet.2247</title>
					<path d="M29.06 107.68 L25.16 103.78 C24.8 103.43 24.09 103.43 23.74 103.78 L0.35 127.52 C0 127.88 0 128.59 0.35
								 128.94 L3.9 132.84 C4.25 133.19 4.96 133.19 5.31 132.84 L28.7 109.1 C29.06 108.74 29.41 108.04 29.06
								 107.68 Z" class="st1"/>
				</g>
			</g>
		</g>
	</g>
</svg>
